svgs/sharp-light/piano-keyboard.svg

<svg xmlns="http://www.w3.org/2000/svg" viewBox="0 0 576 512"><!--! Font Awesome Pro 6.6.0 by @fontawesome - https://fontawesome.com License - https://fontawesome.com/license (Commercial License) Copyright 2024 Fonticons, Inc. --><path d="M544 224l0 192-96 0 0-80 16 0 16 0 0-16 0-96 64 0zM416 416l-112 0 0-80 16 0 16 0 0-16 0-96 48 0 0 96 0 16 16 0 16 0 0 80zm-144 0l-112 0 0-80 16 0 16 0 0-16 0-96 48 0 0 96 0 16 16 0 16 0 0 80zM144 448l144 0 144 0 112 0 32 0 0-32 0-192 0-16 0-16 0-96 0-32-32 0L32 64 0 64 0 96l0 96 0 16 0 16L0 416l0 32 32 0 112 0zm-16-32l-96 0 0-192 64 0 0 96 0 16 16 0 16 0 0 80zm16-112l-16 0 0-80 32 0 0 80-16 0zm144 0l-16 0 0-80 32 0 0 80-16 0zm144 0l-16 0 0-80 32 0 0 80-16 0zM544 192l-80 0-64 0-80 0-64 0-80 0-64 0-80 0 0-96 512 0 0 96z"/></svg>

<svg xmlns="http://www.w3.org/2000/svg" viewBox="0 0 576 512"><!--! Font Awesome Pro 6.4.0 by @fontawesome - https://fontawesome.com License - https://fontawesome.com/license (Commercial License) Copyright 2023 Fonticons, Inc. --><path d="M544 224V416H448V336h16 16V320 224h64zM416 416H304V336h16 16V320 224h48v96 16h16 16v80zm-144 0H160V336h16 16V320 224h48v96 16h16 16v80zM144 448H288 432 544h32V416 224 208 192 96 64H544 32 0V96v96 16 16V416v32H32 144zm-16-32H32V224H96v96 16h16 16v80zm16-112H128V224h32v80H144zm144 0H272V224h32v80H288zm144 0H416V224h32v80H432zM544 192H464 400 320 256 176 112 32V96H544v96z"/></svg>
